X:449
T:Irregular Rhythm Exercise
C:Nigel Gatherer
Z:Nigel Gatherer
M:4/4
L:1/8
K:D
D4 A4 | D4 A4 | D4 A4 | D4 A4 |
D3 F A3 F | D3 F A3 F | D3 F A3 F | D3 F A3 F |
D2 D>F A2 A>F | D2 D>F A2 A>F | D2 D>F A2 A>F | D2 D>F A2 A>F | 
D>FA>F D>FA>F | D>FA>F D>FA>F | D>FA>F D>FA>F | D>FA>F D>FA>F |]
<end>
<start>
